X: 30529
T: On Calton Hill
R: jig
M: 6/8
K: Gmajor
|:DGG BAG|AEE E2C|DGG BAG|ABd B2A|
DGG BAG|AEE E2C|DEG BAG|1 ABA G3:|2 ABA GBd||
|:g3 ged|eBB B2G|ABd dBd|dee e2d|
[1g3 ged|egd e2d|B3 BAG|ABA GBd:|
[2gae ged|egd e2d|BdA BAG|ABA G3||

